bin/cli/demo/icons/svg/box.svg

<?xml version="1.0" encoding="utf-8"?>
<!-- Generator: Adobe Illustrator 16.0.3, SVG Export Plug-In . SVG Version: 6.00 Build 0)  -->
<!DOCTYPE svg PUBLIC "-//W3C//DTD SVG 1.1//EN" "http://www.w3.org/Graphics/SVG/1.1/DTD/svg11.dtd">
<svg version="1.1" xmlns="http://www.w3.org/2000/svg" xmlns:xlink="http://www.w3.org/1999/xlink" x="0px" y="0px" width="24px"
	 height="24px" viewBox="0 0 24 24" enable-background="new 0 0 24 24" xml:space="preserve">
<g id="Outline_Icons_1_">
	<g id="Outline_Icons">
		<path d="M23.5,3.963c-0.016,0-0.028,0.007-0.043,0.009L12.126,1.016c-0.082-0.021-0.17-0.021-0.252,0L0.543,3.972
			C0.528,3.971,0.516,3.963,0.5,3.963c-0.276,0-0.5,0.224-0.5,0.5V18.5c0,0.21,0.132,0.398,0.329,0.47l11,4
			C11.385,22.99,11.442,23,11.5,23c0.054,0,0.106-0.008,0.158-0.026l12-4C23.862,18.907,24,18.715,24,18.5V4.463
			C24,4.187,23.776,3.963,23.5,3.963z M12,2.017l9.479,2.473l-9.974,2.494L2.439,4.511L12,2.017z M1,5.155l10,2.727v13.904L1,18.15
			V5.155z M12,21.807V7.89l11-2.75v13L12,21.807z"/>
	</g>
	<g id="New_icons_1_">
	</g>
</g>
<g id="Invisible_Shape">
	<rect fill="none" width="24" height="24"/>
</g>
</svg>

<?xml version="1.0" encoding="utf-8"?>
<!-- Generator: Adobe Illustrator 24.3.0, SVG Export Plug-In . SVG Version: 6.00 Build 0)  -->
<svg version="1.1" id="Слой_1" xmlns="http://www.w3.org/2000/svg" xmlns:xlink="http://www.w3.org/1999/xlink" x="0px" y="0px"
	 viewBox="0 0 24 24" style="enable-background:new 0 0 24 24;" xml:space="preserve">
<g id="Outline_Icons_1_">
	<g id="Outline_Icons">
		<path d="M23.5,4C23.5,4,23.5,4,23.5,4L12.1,1C12,1,12,1,11.9,1L0.5,4c0,0,0,0,0,0C0.2,4,0,4.2,0,4.5v14c0,0.2,0.1,0.4,0.3,0.5
			l11,4c0.1,0,0.1,0,0.2,0c0.1,0,0.1,0,0.2,0l12-4c0.2-0.1,0.3-0.3,0.3-0.5v-14C24,4.2,23.8,4,23.5,4z M12,2l9.5,2.5L11.5,7L2.4,4.5
			L12,2z M1,5.2l10,2.7v13.9L1,18.1V5.2z M12,21.8V7.9l11-2.8v13L12,21.8z"/>
	</g>
	<g id="New_icons_1_">
	</g>
</g>
</svg>
